Sweet-Rainbow/icons/mps.svg

<?xml version="1.0" encoding="UTF-8" standalone="no"?>
<!-- Generator: Gravit.io -->

<svg
   xmlns:dc="http://purl.org/dc/elements/1.1/"
   xmlns:cc="http://creativecommons.org/ns#"
   xmlns:rdf="http://www.w3.org/1999/02/22-rdf-syntax-ns#"
   xmlns:svg="http://www.w3.org/2000/svg"
   xmlns="http://www.w3.org/2000/svg"
   xmlns:sodipodi="http://sodipodi.sourceforge.net/DTD/sodipodi-0.dtd"
   xmlns:inkscape="http://www.inkscape.org/namespaces/inkscape"
   style="isolation:isolate"
   viewBox="0 0 36 36"
   width="48"
   height="48"
   version="1.1"
   id="svg30"
   sodipodi:docname="mps.svg"
   inkscape:version="0.92.4 (5da689c313, 2019-01-14)">
  <metadata
     id="metadata36">
    <rdf:RDF>
      <cc:Work
         rdf:about="">
        <dc:format>image/svg+xml</dc:format>
        <dc:type
           rdf:resource="http://purl.org/dc/dcmitype/StillImage" />
        <dc:title></dc:title>
      </cc:Work>
    </rdf:RDF>
  </metadata>
  <defs
     id="defs34" />
  <sodipodi:namedview
     pagecolor="#ffffff"
     bordercolor="#666666"
     borderopacity="1"
     objecttolerance="10"
     gridtolerance="10"
     guidetolerance="10"
     inkscape:pageopacity="0"
     inkscape:pageshadow="2"
     inkscape:window-width="640"
     inkscape:window-height="480"
     id="namedview32"
     showgrid="false"
     inkscape:zoom="29.365243"
     inkscape:cx="25.325443"
     inkscape:cy="32"
     inkscape:current-layer="svg30"
     units="px" />
  <linearGradient
     id="_lgradient_36"
     x1="0"
     y1="0.5"
     x2="0.98779029"
     y2="0.34421042"
     gradientTransform="matrix(35.17,0,0,22.62,0.58,24.6)"
     gradientUnits="userSpaceOnUse">
    <stop
       offset="100%"
       stop-opacity="1"
       style="stop-color:rgb(34,216,143)"
       id="stop2" />
    <stop
       offset="100%"
       stop-opacity="1"
       style="stop-color:rgb(33,214,145)"
       id="stop4" />
  </linearGradient>
  <linearGradient
     id="_lgradient_37"
     x1="0"
     y1="0.5"
     x2="1"
     y2="0.5"
     gradientTransform="matrix(46.38,0,0,29.69,0.9,-0.16)"
     gradientUnits="userSpaceOnUse">
    <stop
       offset="6%"
       stop-opacity="1"
       style="stop-color:rgb(43,134,208)"
       id="stop9" />
    <stop
       offset="89%"
       stop-opacity="1"
       style="stop-color:rgb(33,215,137)"
       id="stop11" />
  </linearGradient>
  <linearGradient
     id="_lgradient_38"
     x1="0.41703096"
     y1="0.019248826"
     x2="0.67953813"
     y2="0.96413201"
     gradientTransform="matrix(13.74,0,0,22.13,35.67,17.17)"
     gradientUnits="userSpaceOnUse">
    <stop
       offset="28.000000000000004%"
       stop-opacity="1"
       style="stop-color:rgb(0,205,215)"
       id="stop16" />
    <stop
       offset="94%"
       stop-opacity="1"
       style="stop-color:rgb(32,134,215)"
       id="stop18" />
  </linearGradient>
  <linearGradient
     id="_lgradient_39"
     x1="-3.8208334e-05"
     y1="0.50000006"
     x2="0.99996185"
     y2="0.50000006"
     gradientTransform="matrix(29,0,0,29,9.5,9.5)"
     gradientUnits="userSpaceOnUse">
    <stop
       offset="0%"
       stop-opacity="1"
       style="stop-color:rgb(0,198,255)"
       id="stop23" />
    <stop
       offset="98.69565217391305%"
       stop-opacity="1"
       style="stop-color:rgb(0,114,255)"
       id="stop25" />
  </linearGradient>
  <g
     id="g847"
     transform="matrix(0.73725169,0,0,0.73725169,-0.42760599,0.65246773)">
    <path
       id="path7"
       d="m 31.3,37.45 1.04,-1.7 3.41,2.09 -1.05,1.71 -4.72,7.67 -29.4,-5.65 3.47,-15.02 0.45,-1.95 3.9,0.9 -0.45,1.95 -2.53,10.98 22.6,4.35 z"
       style="fill:url(#_lgradient_36)"
       inkscape:connector-curvature="0" />
    <path
       id="path14"
       d="m 10.14,25.1 1.89,0.64 -1.27,3.79 L 8.86,28.9 2.09,26.61 0.9,7.44 l 32.55,-7.6 13.83,10.37 -3.35,12.42 -0.52,1.93 -3.86,-1.04 0.52,-1.93 2.65,-9.8 L 32.55,4.16 5.1,10.56 5.91,23.68 Z"
       style="fill:url(#_lgradient_37)"
       inkscape:connector-curvature="0" />
    <path
       id="path21"
       d="m 37.05,21.37 -1.38,-1.45 2.91,-2.75 1.37,1.46 9.46,10.01 -5.32,10.66 -6.03,-1.37 -1.95,-0.44 0.88,-3.9 1.95,0.44 2.97,0.67 2.68,-5.34 z"
       style="fill:url(#_lgradient_38)"
       inkscape:connector-curvature="0" />
    <path
       id="path28"
       d="m 35.978,31.218 v 0 c 0,-0.695 0.565,-1.26 1.261,-1.26 v 0 c 0.696,0 1.261,0.565 1.261,1.26 v 0 4.13 c 0,1.74 -1.412,3.152 -3.152,3.152 H 12.652 C 10.912,38.5 9.5,37.088 9.5,35.348 v -11.978 0 c 0,-0.696 0.565,-1.261 1.261,-1.261 v 0 c 0.696,0 1.261,0.565 1.261,1.261 v 0 10.717 c 0,1.044 0.847,1.891 1.891,1.891 h 20.174 c 1.044,0 1.891,-0.847 1.891,-1.891 z M 12.022,16.782 v 0 c 0,0.695 -0.565,1.26 -1.261,1.26 v 0 c -0.696,0 -1.261,-0.565 -1.261,-1.26 v 0 -4.13 C 9.5,10.912 10.912,9.5 12.652,9.5 h 22.696 c 1.74,0 3.152,1.412 3.152,3.152 v 12.495 0 c 0,0.696 -0.565,1.261 -1.261,1.261 v 0 c -0.696,0 -1.261,-0.565 -1.261,-1.261 v 0 -11.234 c 0,-1.044 -0.847,-1.891 -1.891,-1.891 H 13.913 c -1.044,0 -1.891,0.847 -1.891,1.891 z M 13,30.5 H 23 V 33 H 13 Z m 5.023,-7.655 H 16.53 l -1.851,-6.029 h -0.047 v 0 q 0.1,1.84 0.1,2.455 v 0 3.574 H 13.276 V 15.16 h 2.218 l 1.819,5.877 h 0.032 l 1.929,-5.877 h 2.218 v 7.685 h -1.519 v -3.637 0 q 0,-0.258 0.008,-0.594 v 0 0 q 0.008,-0.337 0.071,-1.788 v 0 h -0.047 z m 7.034,-6.35 v 2.282 h 0.536 v 0 q 0.752,0 1.125,-0.297 v 0 0 q 0.373,-0.297 0.373,-0.865 v 0 0 q 0,-0.573 -0.313,-0.847 v 0 0 q -0.312,-0.273 -0.98,-0.273 v 0 z m 9.667,4.216 v 0 0 q 0,1.041 -0.749,1.64 v 0 0 q -0.749,0.6 -2.084,0.6 v 0 0 q -1.23,0 -2.177,-0.463 v 0 -1.514 0 q 0.778,0.347 1.317,0.489 v 0 0 q 0.539,0.142 0.986,0.142 v 0 0 q 0.536,0 0.823,-0.205 v 0 0 q 0.286,-0.205 0.286,-0.61 v 0 0 q 0,-0.226 -0.126,-0.402 v 0 0 q -0.126,-0.176 -0.371,-0.339 v 0 0 q -0.244,-0.163 -0.996,-0.521 v 0 0 q -0.704,-0.331 -1.057,-0.636 v 0 0 q -0.352,-0.305 -0.562,-0.709 v 0 0 q -0.21,-0.405 -0.21,-0.947 v 0 0 q 0,-1.02 0.691,-1.603 v 0 0 q 0.691,-0.584 1.911,-0.584 v 0 0 q 0.599,0 1.143,0.142 v 0 0 q 0.544,0.142 1.138,0.4 v 0 l -0.525,1.267 v 0 q -0.615,-0.253 -1.018,-0.352 v 0 0 q -0.402,-0.1 -0.791,-0.1 v 0 0 q -0.462,0 -0.709,0.215 v 0 0 q -0.247,0.216 -0.247,0.563 v 0 0 q 0,0.215 0.099,0.376 v 0 0 q 0.1,0.16 0.318,0.31 v 0 0 q 0.219,0.15 1.033,0.539 v 0 0 q 1.078,0.515 1.478,1.033 v 0 0 q 0.399,0.517 0.399,1.269 z m -5.987,-3.154 v 0 0 q 0,1.241 -0.776,1.898 v 0 0 q -0.775,0.657 -2.205,0.657 v 0 h -0.699 v 2.733 h -1.63 V 15.16 h 2.455 v 0 q 1.398,0 2.126,0.602 v 0 0 q 0.729,0.602 0.729,1.795 z"
       style="fill:url(#_lgradient_39);fill-rule:evenodd"
       inkscape:connector-curvature="0" />
  </g>
</svg>

<?xml version="1.0" encoding="UTF-8" standalone="no"?><!-- Generator: Gravit.io --><svg xmlns="http://www.w3.org/2000/svg" xmlns:xlink="http://www.w3.org/1999/xlink" style="isolation:isolate" viewBox="0 0 48 48" width="48pt" height="48pt"><linearGradient id="_lgradient_36" x1="0" y1="0.5" x2="0.9877902644462152" y2="0.3442104192659979" gradientTransform="matrix(35.17,0,0,22.62,0.58,24.6)" gradientUnits="userSpaceOnUse"><stop offset="100%" stop-opacity="1" style="stop-color:rgb(34,216,143)"/><stop offset="100%" stop-opacity="1" style="stop-color:rgb(33,214,145)"/></linearGradient><path d=" M 31.3 37.45 L 32.34 35.75 L 35.75 37.84 L 34.7 39.55 L 29.98 47.22 L 0.58 41.57 L 4.05 26.55 L 4.5 24.6 L 8.4 25.5 L 7.95 27.45 L 5.42 38.43 L 28.02 42.78 L 31.3 37.45 Z " fill="url(#_lgradient_36)"/><linearGradient id="_lgradient_37" x1="0" y1="0.5" x2="1" y2="0.5" gradientTransform="matrix(46.38,0,0,29.69,0.9,-0.16)" gradientUnits="userSpaceOnUse"><stop offset="6%" stop-opacity="1" style="stop-color:rgb(43,134,208)"/><stop offset="89%" stop-opacity="1" style="stop-color:rgb(33,215,137)"/></linearGradient><path d=" M 10.14 25.1 L 12.03 25.74 L 10.76 29.53 L 8.86 28.9 L 2.09 26.61 L 0.9 7.44 L 33.45 -0.16 L 47.28 10.21 L 43.93 22.63 L 43.41 24.56 L 39.55 23.52 L 40.07 21.59 L 42.72 11.79 L 32.55 4.16 L 5.1 10.56 L 5.91 23.68 L 10.14 25.1 Z " fill="url(#_lgradient_37)"/><linearGradient id="_lgradient_38" x1="0.41703096539162116" y1="0.019248826291079567" x2="0.679538131811658" y2="0.9641320015277046" gradientTransform="matrix(13.74,0,0,22.13,35.67,17.17)" gradientUnits="userSpaceOnUse"><stop offset="28.000000000000004%" stop-opacity="1" style="stop-color:rgb(0,205,215)"/><stop offset="94%" stop-opacity="1" style="stop-color:rgb(32,134,215)"/></linearGradient><path d=" M 37.05 21.37 L 35.67 19.92 L 38.58 17.17 L 39.95 18.63 L 49.41 28.64 L 44.09 39.3 L 38.06 37.93 L 36.11 37.49 L 36.99 33.59 L 38.94 34.03 L 41.91 34.7 L 44.59 29.36 L 37.05 21.37 Z " fill="url(#_lgradient_38)"/><linearGradient id="_lgradient_39" x1="-0.000038208333333289435" y1="0.5000000833333331" x2="0.9999618333333335" y2="0.5000000833333331" gradientTransform="matrix(29,0,0,29,9.5,9.5)" gradientUnits="userSpaceOnUse"><stop offset="0%" stop-opacity="1" style="stop-color:rgb(0,198,255)"/><stop offset="98.69565217391305%" stop-opacity="1" style="stop-color:rgb(0,114,255)"/></linearGradient><path d=" M 35.978 31.218 L 35.978 31.218 C 35.978 30.523 36.543 29.958 37.239 29.958 L 37.239 29.958 C 37.935 29.958 38.5 30.523 38.5 31.218 L 38.5 31.218 L 38.5 35.348 C 38.5 37.088 37.088 38.5 35.348 38.5 L 12.652 38.5 C 10.912 38.5 9.5 37.088 9.5 35.348 L 9.5 23.37 L 9.5 23.37 C 9.5 22.674 10.065 22.109 10.761 22.109 L 10.761 22.109 C 11.457 22.109 12.022 22.674 12.022 23.37 L 12.022 23.37 L 12.022 34.087 C 12.022 35.131 12.869 35.978 13.913 35.978 L 34.087 35.978 C 35.131 35.978 35.978 35.131 35.978 34.087 L 35.978 31.218 L 35.978 31.218 L 35.978 31.218 Z  M 12.022 16.782 L 12.022 16.782 C 12.022 17.477 11.457 18.042 10.761 18.042 L 10.761 18.042 C 10.065 18.042 9.5 17.477 9.5 16.782 L 9.5 16.782 L 9.5 12.652 C 9.5 10.912 10.912 9.5 12.652 9.5 L 35.348 9.5 C 37.088 9.5 38.5 10.912 38.5 12.652 L 38.5 25.147 L 38.5 25.147 C 38.5 25.843 37.935 26.408 37.239 26.408 L 37.239 26.408 C 36.543 26.408 35.978 25.843 35.978 25.147 L 35.978 25.147 L 35.978 13.913 C 35.978 12.869 35.131 12.022 34.087 12.022 L 13.913 12.022 C 12.869 12.022 12.022 12.869 12.022 13.913 L 12.022 16.782 L 12.022 16.782 L 12.022 16.782 Z  M 13 30.5 L 23 30.5 L 23 33 L 13 33 L 13 30.5 L 13 30.5 Z  M 18.023 22.845 L 16.53 22.845 L 14.679 16.816 L 14.632 16.816 L 14.632 16.816 Q 14.732 18.656 14.732 19.271 L 14.732 19.271 L 14.732 22.845 L 13.276 22.845 L 13.276 15.16 L 15.494 15.16 L 17.313 21.037 L 17.345 21.037 L 19.274 15.16 L 21.492 15.16 L 21.492 22.845 L 19.973 22.845 L 19.973 19.208 L 19.973 19.208 Q 19.973 18.95 19.981 18.614 L 19.981 18.614 L 19.981 18.614 Q 19.989 18.277 20.052 16.826 L 20.052 16.826 L 20.005 16.826 L 18.023 22.845 L 18.023 22.845 Z  M 25.057 16.495 L 25.057 18.777 L 25.593 18.777 L 25.593 18.777 Q 26.345 18.777 26.718 18.48 L 26.718 18.48 L 26.718 18.48 Q 27.091 18.183 27.091 17.615 L 27.091 17.615 L 27.091 17.615 Q 27.091 17.042 26.778 16.768 L 26.778 16.768 L 26.778 16.768 Q 26.466 16.495 25.798 16.495 L 25.798 16.495 L 25.057 16.495 L 25.057 16.495 Z  M 34.724 20.711 L 34.724 20.711 L 34.724 20.711 Q 34.724 21.752 33.975 22.351 L 33.975 22.351 L 33.975 22.351 Q 33.226 22.951 31.891 22.951 L 31.891 22.951 L 31.891 22.951 Q 30.661 22.951 29.714 22.488 L 29.714 22.488 L 29.714 20.974 L 29.714 20.974 Q 30.492 21.321 31.031 21.463 L 31.031 21.463 L 31.031 21.463 Q 31.57 21.605 32.017 21.605 L 32.017 21.605 L 32.017 21.605 Q 32.553 21.605 32.84 21.4 L 32.84 21.4 L 32.84 21.4 Q 33.126 21.195 33.126 20.79 L 33.126 20.79 L 33.126 20.79 Q 33.126 20.564 33 20.388 L 33 20.388 L 33 20.388 Q 32.874 20.212 32.629 20.049 L 32.629 20.049 L 32.629 20.049 Q 32.385 19.886 31.633 19.528 L 31.633 19.528 L 31.633 19.528 Q 30.929 19.197 30.576 18.892 L 30.576 18.892 L 30.576 18.892 Q 30.224 18.587 30.014 18.183 L 30.014 18.183 L 30.014 18.183 Q 29.804 17.778 29.804 17.236 L 29.804 17.236 L 29.804 17.236 Q 29.804 16.216 30.495 15.633 L 30.495 15.633 L 30.495 15.633 Q 31.186 15.049 32.406 15.049 L 32.406 15.049 L 32.406 15.049 Q 33.005 15.049 33.549 15.191 L 33.549 15.191 L 33.549 15.191 Q 34.093 15.333 34.687 15.591 L 34.687 15.591 L 34.162 16.858 L 34.162 16.858 Q 33.547 16.605 33.144 16.506 L 33.144 16.506 L 33.144 16.506 Q 32.742 16.406 32.353 16.406 L 32.353 16.406 L 32.353 16.406 Q 31.891 16.406 31.644 16.621 L 31.644 16.621 L 31.644 16.621 Q 31.397 16.837 31.397 17.184 L 31.397 17.184 L 31.397 17.184 Q 31.397 17.399 31.496 17.56 L 31.496 17.56 L 31.496 17.56 Q 31.596 17.72 31.814 17.87 L 31.814 17.87 L 31.814 17.87 Q 32.033 18.02 32.847 18.409 L 32.847 18.409 L 32.847 18.409 Q 33.925 18.924 34.325 19.442 L 34.325 19.442 L 34.325 19.442 Q 34.724 19.959 34.724 20.711 L 34.724 20.711 Z  M 28.737 17.557 L 28.737 17.557 L 28.737 17.557 Q 28.737 18.798 27.961 19.455 L 27.961 19.455 L 27.961 19.455 Q 27.186 20.112 25.756 20.112 L 25.756 20.112 L 25.057 20.112 L 25.057 22.845 L 23.427 22.845 L 23.427 15.16 L 25.882 15.16 L 25.882 15.16 Q 27.28 15.16 28.008 15.762 L 28.008 15.762 L 28.008 15.762 Q 28.737 16.364 28.737 17.557 L 28.737 17.557 Z " fill-rule="evenodd" fill="url(#_lgradient_39)"/></svg>
